X:282
%%etbk:tnset id:86,pos:1,rep:3x,ant:
%%etbk:wsite http://www.thesession.org/tunes/display/1304
%%etbk:pldat 2016-03-17T18:17,2014-12-16T17:42,2014-12-07T11:33,2014-05-20T17:07,2014-02-04T18:27,2013-12-11T19:26,2013-10-03T19:32,2013-05-21T17:44,2013-05-05T14:34
T: Doctor O'Neill
Z: Piano Box Version by Martin Fleischmann
H: Created 2013-02-19 /  Last Modified 2013-02-19
M: 6/8
L: 1/8
R: jig
K: Dmaj
|: "D"!5!d!1!D!5!d !3!A!2!F!1!D | "A"!1!E2F G2!4!A | !2!B{d}!2!B!2!B Bc!4!d | !1!A!3!GF !1!E!2!F!3!A | 
"D"!5!dDd !3!A!2!F!1!D | "A"!1!E2F G2!4!A | !2!B{d}!2!B!2!B Bc!4!d | "D"!1!A!2!F!1!D D3:|
|: "D"!3!d{e}!3!d!3!d !2!c!4!e!1!A | !3!d!5!fe !3!dc!1!B | !1!A!2!A!1!A !2!Bc!4!d | !1!A!3!GF "A"!1!E2E | 
"D"!3!d!2!d!3!d !2!c!5!e!1!A | !3!d!5!fe !3!dc!1!B | !1!A!2!A!1!A !2!Bc!4!d | !1!A!2!F!1!D D3:|
|: "D"!3!f!2!f!3!f !5!a!3!f!1!d | !1!d!2!c!1!d !3!fed | "G"!4!g!3!g!4!g !3!f!5!af | "A"!4!g!2!ee e2 g |
"D"!3!f!2!f!3!f !5!a!3!f!1!d | !1!d!2!c!1!d !3!fed | "G"!4!g2g "A"!3!fag | "D"!3!f!1!dd d3:|
|: "D"!5!f!3!df !4!e!2!ce | !3!dc!1!B !1!A!2!A!1!A | !1!A!2!F!5!d !3!A!2!F!5!d | !3!A!1!G!2!F "A"!1!E2E | 
"D"!5!f!3!df !4!e!2!ce | !3!dc!1!B !1!A!2!A!1!A | "G"!2!B!1!B!2!B !2!Bc!4!d | "D"!1!A!2!F!1!D D3:|
|: "D"!3!F!2!F!3!F !4!G2G | !3!F!5!AF !3!FE!1!D | {A}!2!FEF !3!GFG | !4!A!2!F!1!D "A"!1!E2E |
"D"!2!F{A}!2!F!2!F !3!G!2!G!3!G | !2!FAF !2!F!1!E!1!D | "G"!2!B!1!B!2!B !2!Bc!4!d | "D"!1!A!2!F!1!D D3:|


